X:1
T:Title
%%score 1 { ( 2 4 ) | ( 3 5 ) }
L:1/8
M:4/4
K:C
V:1 treble nm="Choir Aahs"
V:2 treble nm="Grand Piano"
V:4 treble 
V:3 treble 
V:5 treble 
V:1
 z8[Q:1/4=100] | z8 | z8 | z8 |[M:7/8] z7 |[M:1/4] G>A |[M:4/4] Gedc Bc G>A |[M:3/4] B2 B2 B2 | %8
[M:1/4] G>A |[M:4/4] Gfed cBAB |[M:3/4] A2 G2 G2 |[M:1/4] G>A |[M:4/4] Gedc BcGA | %13
[M:3/4] B2 B2 B2 |[M:1/4] B>B |[M:4/4] AABc dBGA |[M:7/8] B2 A2 G3 |[M:1/4] z2 |[M:4/4] z8 | z8 | %20
[M:3/4] z6 |[M:1/4] z2 |[M:4/4] z8 | z8 | z8 | z8 |[M:7/8] z7 |] %27
V:2
 z4 z2 ed | cBAG FAdc | BAGF E2 .[Gce]2 | .[Gceg]2 [EAc]2 .[FAd]2 .[FGB]2 | %4
[M:7/8] [EGc]-[EGc]-[EGc]- [EGc]- [EGc]3 |[M:1/4] z2 |[M:4/4] [G,CE]2 [G,CE]2 [G,CE]2 [G,CE]2 | %7
[M:3/4] [G,B,F]2 [G,B,F]2 [G,B,F]2 |[M:1/4] z2 |[M:4/4] [G,B,F]2 [G,B,F]2 [G,B,F]2 [G,B,F]2 | %10
[M:3/4] [G,CE]2 [G,CE]2 [G,CE]2 |[M:1/4] z2 |[M:4/4] [G,CE]2 [G,CE]2 [G,CE]2 [G,CG]2 | %13
[M:3/4] [B,G]2 [B,G]2 [B,G]2 |[M:1/4] z2 |[M:4/4] [A,D^F]2 [A,DF]2 [G,DG]2 [A,^CG]2 | %16
[M:7/8] [B,G]2 [CD^F]2 [B,DG]3 |[M:1/4] z2 |[M:4/4] [G,EG]2 e2- [Ee-]>[Ee] (3[F-B][Fc]d | %19
 c->[Ec] G->[EG-] [EG]2 G>A |[M:3/4] G2 d4 |[M:1/4] G>A |[M:4/4] G2 c4 z2 | %23
 A>A A[GB] [Bd][Ac][GB][FA] | [EG]2 [Ec]2 [Ge]2 G>A | z2 f4 z2 |[M:7/8] c-c-c- c- c3 |] %27
V:3
 z4 z2 GF | EGFE DC[K:bass]B,A, | G,A,B,G,[K:treble] CDED | C[K:bass]B,A,G, F,D,G,G,, | %4
[M:7/8] C,^F,,G,, E,, C,,3 |[M:1/4] z2 |[M:4/4] C,2 G,,2 C,2 E,2 |[M:3/4] D,2 D,2 G,,2 | %8
[M:1/4] z2 |[M:4/4] G,,2 B,,2 D,2 G,,2 |[M:3/4] C,2 G,,2 C,2 |[M:1/4] z2 | %12
[M:4/4] C,2 G,,2 C,2 E,2 |[M:3/4] D,2 D,2 D,2 |[M:1/4] z2 |[M:4/4] C,2 C,2 B,,2 E,2 | %16
[M:7/8] D,2 D,,2 G,,3 |[M:1/4][K:treble] G>A | %18
[M:4/4][K:bass] C,2 [G,,G,]2 [C,G,]>[C,G,] (3:2:2G,,2 F | [C,G,]>[C,G,] [C,G,]>[C,G,] [C,G,]2 z2 | %20
[M:3/4] z z/[K:treble] [G,B,]/ [G,B,F]>[G,B,] [G,B,]2 |[M:1/4] z2 | %22
[M:4/4][K:bass] [C,C]>[C,C] [C,G,]>[C,G,] [C,G,]2 [C,C]>[C,C] | %23
 [F,CF]>[F,CF] [F,CF][F,C] [F,C][F,C][F,C][F,C] | [C,C]2 [C,G,]2 [C,C]2 z2 | %25
 z2[K:treble] [G,B,G]>[G,B,][K:bass] [G,B,]2 [G,,G,]2 | %26
[M:7/8] [C,G,]>[C,G,][C,A,]>[C,A,] [C,G,]3 |] %27
V:4
 x8 | x8 | x8 | x8 |[M:7/8] x7 |[M:1/4] x2 |[M:4/4] x8 |[M:3/4] x6 |[M:1/4] x2 |[M:4/4] x8 | %10
[M:3/4] x6 |[M:1/4] x2 |[M:4/4] x8 |[M:3/4] x6 |[M:1/4] x2 |[M:4/4] x8 |[M:7/8] x7 |[M:1/4] x2 | %18
[M:4/4] z2 E2 z2 z z/ G,/ | E2 E2 z4 |[M:3/4] z z/ F/ z z/ F/ F2 |[M:1/4] x2 | %22
[M:4/4] E>E E>E E2 [EG]>[EG] | x8 | x8 | G2 z z/ G/ G2 [FB]2 |[M:7/8] E>EF>F E3 |] %27
V:5
 x8 | x6[K:bass] x2 | x4[K:treble] x4 | x[K:bass] x7 |[M:7/8] x7 |[M:1/4] x2 |[M:4/4] x8 | %7
[M:3/4] x6 |[M:1/4] x2 |[M:4/4] x8 |[M:3/4] x6 |[M:1/4] x2 |[M:4/4] x8 |[M:3/4] x6 |[M:1/4] x2 | %15
[M:4/4] x8 |[M:7/8] x7 |[M:1/4][K:treble] x2 |[M:4/4][K:bass] z4 z2 G,>G,, | x8 | %20
[M:3/4] x3/2[K:treble] x9/2 |[M:1/4] x2 |[M:4/4][K:bass] x8 | x8 | x8 | %25
 x2[K:treble] x2[K:bass] x4 |[M:7/8] x7 |] %27

